!!!OTL: AUS MEINES HERZENS GRUNDE
!!!ARE: Europa, Mitteleuropa, Deutschland
!!!SCT: E1989
!!!YEM: Copyright 1995, estate of Helmut Schaffrath.
**kern
*ICvox
*Ivox
*M4/4
*k[f#]
*G:
{4g
=1
4g
4dd
4b
4g
=2
8g
8a
4b
4a}
{4b
=3
4dd
4b
4a
4a
=4
2g
4r}
{4g
=5
4g
4dd
4b
4g
=6
8g
8a
4b
4a}
{4b
=7
4dd
4b
4a
4a
=8
2g
4r}
{4b
=9
4b
4dd
4dd
4b
=10
2.a}
{4g
=11
4b
4a
4dd
4a
=12
2b
4g}
{4b
=13
4dd
4cc
4b
4g
=14
8g
8a
4b
4a}
{4b
=15
4dd
4b
4a
4a
=16
2g
4r}
==
!!!AGN: geistlich, Dank -, Lob - Lied, Choral; Morgen - Lied
!!!ONB: ESAC (Essen Associative Code) Database: ERK3
!!!AMT: simple quadruple
!!!AIN: vox
!!!EED: Helmut Schaffrath
!!!EEV: 1.0
*-
